src/images/mobile-icons/options.svg

<svg viewBox="0 0 512 512" xmlns="http://www.w3.org/2000/svg" xmlns:xlink="http://www.w3.org/1999/xlink">
  <title>options</title>
  <path d="M256,362.666667 C279.564149,362.666667 298.666667,381.769184 298.666667,405.333333 C298.666667,428.897483 279.564149,448 256,448 C232.435851,448 213.333333,428.897483 213.333333,405.333333 C213.333333,381.769184 232.435851,362.666667 256,362.666667 Z M256,213.333333 C279.564149,213.333333 298.666667,232.435851 298.666667,256 C298.666667,279.564149 279.564149,298.666667 256,298.666667 C232.435851,298.666667 213.333333,279.564149 213.333333,256 C213.333333,232.435851 232.435851,213.333333 256,213.333333 Z M256,64 C279.564149,64 298.666667,83.1025173 298.666667,106.666667 C298.666667,130.230816 279.564149,149.333333 256,149.333333 C232.435851,149.333333 213.333333,130.230816 213.333333,106.666667 C213.333333,83.1025173 232.435851,64 256,64 Z" fill="#000" stroke="none" stroke-width="1" fill-rule="evenodd"></path>
</svg>

<svg viewBox="0 0 512 512" xmlns="http://www.w3.org/2000/svg" xmlns:xlink="http://www.w3.org/1999/xlink">
  <title>options</title>
  <path d="M256 362.667c23.564 0 42.667 19.102 42.667 42.666C298.667 428.897 279.564 448 256 448s-42.667-19.103-42.667-42.667 19.103-42.666 42.667-42.666zm0-149.334c23.564 0 42.667 19.103 42.667 42.667S279.564 298.667 256 298.667 213.333 279.564 213.333 256s19.103-42.667 42.667-42.667zM256 64c23.564 0 42.667 19.103 42.667 42.667S279.564 149.333 256 149.333s-42.667-19.102-42.667-42.666C213.333 83.103 232.436 64 256 64z" fill="#000" stroke="none" stroke-width="1" fill-rule="evenodd"></path>
</svg>
